X: 28857
T: Mympwy Corris
R: polka
M: 2/4
K: Gmajor
gB d/c/B|B/c/d B/A/G|A/B/c F/G/A|GF
ED|gB d/c/B|B/c/d B/A/G|A/B/c DF|G2 G,2:|
B,/C/D GD|C/D/E GE|D/E/F A/B/c|B/c/d BG|
B,/C/D GD|C/D/E GE|F/G/A FD|G2 Gg|
f/g/a fd|g/a/b ge|ag fe|c/B/A Bg|
f/g/a fd|g/f/e f/e/d|f/g/a gf|g2 g2||

